X: 3562
T: Big Sciote
R: reel
M: 4/4
K: Gmajor
DED|:G2B2 AGED|G3(G G)DED|G2B2 AGED|G3(G G)DED|
G2A2 Bd3|e3(e e2)d|BAGB AGED|1 G3(G G) DED:|2 G3(G G2)d2 ]|
|:gg2g f2g2|a3(a a)(a3|a)bag eged|e3(e e)def|
g2f2 ed3|e3(e e2)d2|BAGB AGED|1 G3(G G2) d2:|2 G3(G G4)||

